assets/icons/bowtie/uE6E8-star-half.svg

<svg xmlns="http://www.w3.org/2000/svg" viewBox="0 0 448 448"><path d="M448 160h-171.5l-52.5-160-52.5 160h-171.5l138.264 109.03-54.264 178.97 140-108.8 140 108.8-54.264-179.244 138.264-108.756zm-224 138.672v-196.03l29.328 89.358h102.22l-82.767 65.11 31.457 103.92-80.238-62.357z"/></svg>

<svg xmlns="http://www.w3.org/2000/svg" viewBox="0 0 448 448"><path d="M448 160H276.5L224 0l-52.5 160H0l138.264 109.03L84 448l140-108.8L364 448l-54.264-179.244L448 160zM224 298.672v-196.03L253.328 192h102.22l-82.767 65.11 31.457 103.92L224 298.673z"/></svg>
